X:391
T: Madame, Madame (4-91), S. 119
N: P0661
O: Lothringen
S: PINCK, Louis: Verklingende Weisen Bd 4, Kassel 1939]
R: Trink-, Zechlied]
M: 2/4
L: 1/16
K: Bb
F2 | d4z2B2 | F4z2F2 | F2F2G2D2 | F4E4 |
c6B2 | A2G2F2E2 | D4z4 |
D2F2F4 | E2G2G4 |
F2A2c2cc | d2B2F4 |
D2F2F4 | E2G2G4 | F2A2c2c2 | B4z2

@@@ Tune index: 7941
